X: 16252
T: The Millar of Fife
C: James Oswald (ca.1740)
%R: reel
B: James Oswald "The Caledonian Pocket Companion" v.1 b.6 p.24 #2
S: https://ia800501.us.archive.org/18/items/caledonianpocket01rugg/caledonianpocket01rugg_bw.pdf
Z: 2020 John Chambers <jc:trillian.mit.edu>
M: C|
L: 1/8
K: G
%%slurgraces 1
%%graceslurs 1
"_Brisk"d |\
BGBG F2D2 | BGgB {G}A3g | dedB AGAB | E2G2 G3 :: B |\
{B}A3B cABg | dBAG A2D2 | A3B cABg | a2A2 A3c |
BGcA F2D2 | BGgB A3g | dedB AGAB | E2G2 G3 :: d |\
BdBG FAFD | gdBG {G}A3f | gdec dBAG | E2G2 G3 :: B |
AcBg AcBg | fagB AFED | AcBg AcBg | (f/g/a) A2 A3d |\
BdBG FAFD | gdBG A3g | dedB AGAB | E2G2 G3 :|


